X:631
T:La Trinite
C:Eugene P McLaughlin
S:Eugene McLaughlin
Z:Nigel Gatherer
M:4/4
L:1/8
K:D
fe | d2 dc B2 BA | G2 GF E2 ed | c2 cB A2 BA | Gefe  d2 
fe | d2 dc B2 BA | G2 GF E2 ed | c2 cB AGFE  | D2 F2 D2 :|
de | f2 fd e2 ec | d2 dB A2 AG | FEFG  ABAG  | F2 E2 E2
de | f2 fd e2 ec | d2 dB A2 AG | FEFG  ABAG  | F2 D2 D2 :|
de | f2 fd g2 ge | a2 ag f2 ag | f2 fe defd  | e2 A2 A2
de | f2 fd g2 ge | a2 ag f2 ag | f2 ed cAfe  | d2 f2 d2 :|]
